X:1
T: Liggeram cosh
C:
R:Jig
Q:180
K:G
M:6/8
L:1/16
|:G2A2B2 D4B2|c4B2 B2A2G2|G2A2B2 D4D2|E6G6|
G2A2B2 D4B2|c4B2 B2A2G2|G2A2B2 D4D2|E6G6|
G4B2 d4B2|e4c2 d4B2|G4B2 d2e2c2|B6d6|
e4c2 A2B2c2|d4B2 G6|G2A2B2 D4D2|E6G6:|
